X: 131906
T: Maids of Glenroe
S: "The Roche Collection of Traditional Irish Music" [I/38/83]
L: 1/8
M: 6/8
R: jig
K: G
A | GED EDE | GAB c2d | edc BcA | BGE E2A |
GED EDE | GAB c2d | edc BcA | BGG G2 :|
A | gdd edd | gdB c2d | edc BcA | BGE E2g |
gdd edd | gdB c2d | edc BcA | BGG G2 :|
